packages/ffe-icons/icons/filled/sm/border_all.svg

<svg xmlns="http://www.w3.org/2000/svg" height="20" viewBox="0 -960 960 960" width="20"><path d="M570.306-164.001q-25.826 0-45.066-18.891-19.241-18.89-19.241-45.417v-161.385q0-26.526 19.241-45.417 19.24-18.89 45.066-18.89h161.385q26.527 0 45.417 18.89 18.891 18.891 18.891 45.417v161.385q0 26.527-18.891 45.417-18.89 18.891-45.417 18.891H570.306Zm0-341.998q-25.826 0-45.066-19.241-19.241-19.24-19.241-45.066v-161.385q0-26.527 19.241-45.417 19.24-18.891 45.066-18.891h161.385q26.527 0 45.417 18.891 18.891 18.89 18.891 45.417v161.385q0 25.826-18.891 45.066-18.89 19.241-45.417 19.241H570.306Zm-341.997 0q-26.527 0-45.417-19.241-18.891-19.24-18.891-45.066v-161.385q0-26.527 18.891-45.417 18.89-18.891 45.417-18.891h161.385q26.526 0 45.417 18.891 18.89 18.89 18.89 45.417v161.385q0 25.826-18.89 45.066-18.891 19.241-45.417 19.241H228.309Zm0 341.998q-26.527 0-45.417-18.891-18.891-18.89-18.891-45.417v-161.385q0-26.526 18.891-45.417 18.89-18.89 45.417-18.89h161.385q26.526 0 45.417 18.89 18.89 18.891 18.89 45.417v161.385q0 26.527-18.89 45.417-18.891 18.891-45.417 18.891H228.309Z"/></svg>

<svg xmlns="http://www.w3.org/2000/svg" height="20" viewBox="0 -960 960 960" width="20"><path d="M570.31-164q-25.83 0-45.07-18.89Q506-201.78 506-228.31v-161.38q0-26.53 19.24-45.42T570.31-454h161.38q26.53 0 45.42 18.89T796-389.69v161.38q0 26.53-18.89 45.42T731.69-164H570.31Zm0-342q-25.83 0-45.07-19.24Q506-544.48 506-570.31v-161.38q0-26.53 19.24-45.42T570.31-796h161.38q26.53 0 45.42 18.89T796-731.69v161.38q0 25.83-18.89 45.07Q758.22-506 731.69-506H570.31Zm-342 0q-26.53 0-45.42-19.24T164-570.31v-161.38q0-26.53 18.89-45.42T228.31-796h161.38q26.53 0 45.42 18.89T454-731.69v161.38q0 25.83-18.89 45.07Q416.22-506 389.69-506H228.31Zm0 342q-26.53 0-45.42-18.89T164-228.31v-161.38q0-26.53 18.89-45.42T228.31-454h161.38q26.53 0 45.42 18.89T454-389.69v161.38q0 26.53-18.89 45.42T389.69-164H228.31Z"/></svg>
